X:1
T:I'll Mak You be Fain to Follow Me
M:6/8
L:1/8
K:C
 z4 z C| EFG cde| dDD D2 C| EFG cdc| BAB c2 E| FAFE-G E| FDD D2 F|\
 E3/2 F/2 G c2 G|E-C C C2 f|e-g a g/2g/2 ec| fgag-ec/2-c/2| fge ddc|\
 egag-e c| faf ege|d-e d d2 D| EFG c2 G|E-C C C2 z|
